icons/svg/open.svg

<svg width="24" height="24" viewBox="0 0 24 24" fill="none" xmlns="http://www.w3.org/2000/svg">
<path d="M10.75 4.25H7.25C5.04086 4.25 3.25 6.04086 3.25 8.25L3.25 16.75C3.25 18.9591 5.04086 20.75 7.25 20.75H15.75C17.9591 20.75 19.75 18.9591 19.75 16.75V13.25" stroke="currentColor" stroke-width="1.5" stroke-linecap="round" stroke-linejoin="round"/>
<path d="M14.25 3.25H19.75C20.0261 3.25 20.2761 3.36193 20.4571 3.54289M20.75 9.75V4.25C20.75 3.97386 20.6381 3.72386 20.4571 3.54289M13.25 10.75L19.75 4.25L20.4571 3.54289" stroke="currentColor" stroke-width="1.5" stroke-linecap="round" stroke-linejoin="round"/>
</svg>

<svg xmlns="http://www.w3.org/2000/svg" width="24" height="24" fill="none" viewBox="0 0 24 24"><path stroke="currentColor" stroke-linecap="round" stroke-linejoin="round" stroke-width="1.5" d="M10.75 4.25h-3.5a4 4 0 0 0-4 4v8.5a4 4 0 0 0 4 4h8.5a4 4 0 0 0 4-4v-3.5m-5.5-10h5.5c.276 0 .526.112.707.293m.293 6.207v-5.5a1 1 0 0 0-.293-.707M13.25 10.75l6.5-6.5.707-.707"/></svg>
